X:14991
T:Schottische
Z:abc transcription Simon Wascher
N:please mail errors to: simon.wascher@chello.at
M:2/4
L:1/16
K:D
F2G2 A2Bc|d2F2A4|BAGF E2EF|GABc B2A2|
F2G2 A2Bc|d2F2A4|BAGF EFGE|D2F2D4:|
|:d2d2 c3G|B2B2A4|BAGF E2EF|GABc B2A2|
d2d2 c3G|B2B2A4|BAGF EFGE|D2F2D4:|
